**kern
*staff1
*I"P1
=1-
!!pagebreak:original
*clefG2
*k[b-e-]
*M3/4
4r
8g/L
8b-/
8g/
8a/J
=2
4b-\
8a/L
8b-/
8g/
8b-/J
=3
8a/L
8g/J
8g/L
8b-/
8g/
8a/J
=4
4b-\
8a/L
8b-/
8g/
8b-/J
=5
8a-/
8r
8a-/L
8cc/
8a-/
8b-/J
=6
4cc\
8b-\L
8cc\
8a-\
8cc\J
=7
8b-/L
8a-/J
=
*-
